<?xml version="1.0" encoding="UTF-8"?>
<map version="1.10" tiledversion="1.12.2" orientation="orthogonal" renderorder="right-down" width="21" height="13" tilewidth="16" tileheight="16" infinite="0" nextlayerid="4" nextobjectid="12">
 <tileset firstgid="1" source="tileset4.tsx"/>
 <tileset firstgid="241" source="obj.tsx"/>
 <tileset firstgid="481" source="tileset.tsx"/>
 <layer id="1" name="bg" width="21" height="13">
  <data encoding="csv">
104,4,4,4,4,4,4,4,4,4,4,4,4,4,4,4,4,102,103,123,103,
104,3,4,4,24,4,4,4,4,4,4,4,4,4,4,4,4,182,183,183,183,
104,4,1,2,4,4,4,4,4,4,4,45,45,45,45,45,45,45,45,45,4,
104,4,21,22,4,4,4,4,4,4,4,4,45,45,4,4,4,4,4,4,4,
104,4,23,4,4,4,4,4,4,4,4,4,4,4,4,4,4,4,4,4,4,
104,4,4,4,4,562,564,4,4,45,45,4,4,45,4,82,83,83,83,83,83,
104,4,4,4,4,582,584,48,49,4,45,45,82,83,83,122,103,103,103,103,125,
104,4,4,4,4,102,104,4,50,4,4,45,102,123,123,103,103,103,103,103,103,
104,4,4,4,4,102,104,8,9,4,82,83,122,103,123,103,103,126,127,103,103,
104,4,4,4,4,102,104,4,4,525,582,103,125,123,103,103,145,146,147,103,103,
104,4,4,42,4,102,104,4,4,525,582,123,103,103,103,103,165,166,167,123,103,
124,84,4,4,4,102,104,4,4,525,582,103,123,103,103,125,103,103,103,103,103,
123,104,62,62,62,102,104,4,4,525,582,103,103,103,123,103,103,103,103,103,103
</data>
 </layer>
 <objectgroup id="3" name="Obj"/>
 <layer id="2" name="col" width="21" height="13" visible="0">
  <data encoding="csv">
242,241,241,241,241,241,241,241,241,241,241,241,241,241,241,241,241,242,241,241,241,
242,241,241,241,241,241,241,241,241,241,241,241,241,241,241,241,241,242,242,242,242,
242,241,252,241,241,241,241,241,241,241,241,241,241,241,241,241,241,241,241,241,241,
242,241,241,241,241,241,241,241,241,241,241,241,241,241,241,241,241,241,241,241,241,
242,241,241,241,241,241,241,241,241,241,241,241,241,241,241,241,241,241,241,241,241,
242,241,241,241,241,242,242,241,241,241,241,241,241,241,241,242,242,242,242,242,242,
242,241,241,241,241,242,242,241,241,241,241,241,242,242,242,242,241,241,241,241,241,
242,241,241,241,241,242,242,241,241,241,241,241,242,241,241,241,241,241,241,241,241,
242,241,241,247,241,242,242,241,241,241,242,242,242,241,241,241,241,241,241,241,241,
242,241,241,241,241,242,242,241,241,241,242,241,241,241,241,241,241,241,241,241,241,
242,241,241,242,241,242,242,241,241,241,242,241,241,241,241,241,241,241,241,241,241,
242,242,241,241,241,242,242,241,241,241,242,241,241,241,241,241,241,241,241,241,241,
242,242,244,244,244,242,242,256,256,256,242,241,241,241,241,241,241,241,241,241,241
</data>
 </layer>
</map>
