<?xml version="1.0" encoding="UTF-8"?>
<map version="1.10" tiledversion="1.12.2" orientation="orthogonal" renderorder="right-down" width="21" height="13" tilewidth="16" tileheight="16" infinite="0" nextlayerid="4" nextobjectid="33">
 <tileset firstgid="1" source="tileset4.tsx"/>
 <tileset firstgid="241" source="obj.tsx"/>
 <tileset firstgid="481" source="tileset.tsx"/>
 <layer id="1" name="bg" width="21" height="13">
  <data encoding="csv">
525,525,525,525,525,525,525,525,525,45,45,45,525,525,525,525,525,525,525,525,525,
525,525,45,45,45,45,45,45,45,45,149,45,45,45,45,45,45,45,82,83,83,
45,45,45,45,45,45,45,45,149,45,45,45,149,45,45,525,45,45,102,123,103,
525,45,45,45,45,45,45,45,45,45,45,45,45,45,45,45,45,82,122,103,103,
83,84,525,525,45,45,149,45,45,45,45,525,525,45,149,45,45,102,123,103,123,
103,104,525,525,525,525,525,525,45,45,45,45,525,45,45,45,45,102,123,103,123,
103,124,84,525,525,525,525,525,525,525,525,45,45,45,45,45,65,102,123,125,123,
103,103,104,525,525,525,45,45,45,88,89,90,45,45,92,45,82,122,123,123,123,
103,103,124,84,45,4,65,45,45,108,109,110,45,45,112,45,102,123,103,103,123,
123,123,123,124,83,83,84,4,45,128,129,130,45,4,132,82,122,123,103,123,123,
123,103,103,123,123,123,124,83,83,83,83,83,83,83,83,122,123,123,123,103,123,
123,123,123,103,123,123,103,123,103,123,123,123,103,123,123,123,123,125,123,103,123,
123,123,123,123,103,123,123,123,123,103,123,123,103,123,103,123,103,123,123,103,123
</data>
 </layer>
 <layer id="2" name="col" width="21" height="13">
  <data encoding="csv">
241,241,241,241,241,241,241,241,241,241,241,241,241,241,241,241,241,241,241,241,241,
241,241,241,241,241,241,241,241,241,241,241,241,241,241,241,241,241,241,242,242,242,
241,241,241,241,241,241,241,241,241,241,241,241,241,241,241,241,241,241,242,241,241,
241,241,241,241,241,241,241,241,241,241,241,241,241,241,241,241,241,242,242,241,241,
242,242,241,241,241,241,241,241,241,241,241,241,241,241,241,241,241,242,241,241,241,
241,242,241,241,241,241,241,241,241,241,241,241,241,241,241,241,241,242,241,241,241,
241,242,242,241,241,241,241,241,241,241,241,241,241,241,241,241,241,242,241,241,241,
241,242,242,241,241,241,241,241,241,241,241,241,241,241,241,241,242,242,241,241,241,
241,241,242,242,241,241,241,241,241,241,241,241,243,241,241,241,242,241,241,241,241,
241,241,241,242,242,242,242,241,241,241,241,241,241,241,241,242,242,241,241,241,241,
241,241,241,241,241,241,242,242,242,242,242,242,242,242,242,242,241,241,241,241,241,
241,241,241,241,241,241,241,241,241,241,241,241,241,241,241,241,241,241,241,241,241,
241,241,241,241,241,241,241,241,241,241,241,241,241,241,241,241,241,241,241,241,241
</data>
 </layer>
 <objectgroup id="3" name="obj">
  <object id="31" name="Worshiper text" type="text" x="129.154" y="57.5225" width="79.6769" height="36.8763">
   <properties>
    <property name="string_id" type="int" value="50"/>
   </properties>
  </object>
  <object id="32" name="TestPortal" type="portal" x="224.065" y="112.105" width="15.8913" height="47.7935">
   <properties>
    <property name="target_level_x" type="int" value="18"/>
    <property name="target_level_y" type="int" value="3"/>
   </properties>
  </object>
 </objectgroup>
</map>
